public/flags/KG.svg

<svg fill="none" height="53" viewBox="0 0 61 53" width="61" xmlns="http://www.w3.org/2000/svg" xmlns:xlink="http://www.w3.org/1999/xlink"><mask id="a" height="43" maskUnits="userSpaceOnUse" width="59" x="1" y="3"><rect fill="#fff" height="42.5" rx="4.24286" width="59" x="1" y="3"/></mask><rect fill="#fff" height="42.5" rx="4.24286" width="59" x="1" y="3"/><g mask="url(#a)"><path d="m1 3h59v42.5h-59z" fill="#f22a46"/><g clip-rule="evenodd" fill="#fff04d" fill-rule="evenodd"><path d="m30.5001 31.3334c3.8792 0 7.0238-3.1714 7.0238-7.0834s-3.1446-7.0833-7.0238-7.0833c-3.8791 0-7.0238 3.1713-7.0238 7.0833s3.1447 7.0834 7.0238 7.0834z"/><path d="m27.0615 39.4426 3.4385-5.1762 3.4385 5.1762.8709-6.1681 5.325 3.159-1.8691-5.9384 6.1568.5163-4.2389-4.5325 5.7692-2.2289-5.7692-2.2289 4.2389-4.5325-6.1568.5163 1.8691-5.9384-5.325 3.159-.8709-6.16813-3.4385 5.17623-3.4385-5.17623-.871 6.16813-5.3249-3.159 1.869 5.9384-6.1567-.5163 4.2389 4.5325-5.7692 2.2289 5.7692 2.2289-4.2389 4.5325 6.1567-.5163-1.869 5.9384 5.3249-3.159zm13.2718-15.1926c0 5.4768-4.4025 9.9166-9.8333 9.9166s-9.8333-4.4398-9.8333-9.9166c0-5.4769 4.4025-9.9167 9.8333-9.9167s9.8333 4.4398 9.8333 9.9167z"/></g></g></svg>

<svg width="61" height="53" viewBox="0 0 61 53" fill="none" xmlns="http://www.w3.org/2000/svg">
<rect x="1" y="3" width="59" height="42.5" rx="4.24286" fill="white"/>
<mask id="mask0" mask-type="alpha" maskUnits="userSpaceOnUse" x="1" y="3" width="59" height="43">
<rect x="1" y="3" width="59" height="42.5" rx="4.24286" fill="white"/>
</mask>
<g mask="url(#mask0)">
<rect x="1" y="3" width="59" height="42.5" fill="#F22A46"/>
<path fill-rule="evenodd" clip-rule="evenodd" d="M30.5001 31.3334C34.3793 31.3334 37.5239 28.162 37.5239 24.25C37.5239 20.338 34.3793 17.1667 30.5001 17.1667C26.621 17.1667 23.4763 20.338 23.4763 24.25C23.4763 28.162 26.621 31.3334 30.5001 31.3334Z" fill="#FFF04D"/>
<path fill-rule="evenodd" clip-rule="evenodd" d="M27.0615 39.4426L30.5 34.2664L33.9385 39.4426L34.8094 33.2745L40.1344 36.4335L38.2653 30.4951L44.4221 31.0114L40.1832 26.4789L45.9524 24.25L40.1832 22.0211L44.4221 17.4886L38.2653 18.0049L40.1344 12.0665L34.8094 15.2255L33.9385 9.05737L30.5 14.2336L27.0615 9.05737L26.1905 15.2255L20.8656 12.0665L22.7346 18.0049L16.5779 17.4886L20.8168 22.0211L15.0476 24.25L20.8168 26.4789L16.5779 31.0114L22.7346 30.4951L20.8656 36.4335L26.1905 33.2745L27.0615 39.4426ZM40.3333 24.25C40.3333 29.7268 35.9308 34.1666 30.5 34.1666C25.0692 34.1666 20.6667 29.7268 20.6667 24.25C20.6667 18.7731 25.0692 14.3333 30.5 14.3333C35.9308 14.3333 40.3333 18.7731 40.3333 24.25Z" fill="#FFF04D"/>
</g>
</svg>
